packages/match-icons/product/svg/autopilot.svg

<svg fill="none" height="32" viewBox="0 0 32 32" width="32" xmlns="http://www.w3.org/2000/svg"><g fill="#394762"><path d="m10 12c1.1046 0 2-.8954 2-2 0-1.10457-.8954-2-2-2-1.10457 0-2 .89543-2 2 0 1.1046.89543 2 2 2z"/><path d="m22 12c1.1046 0 2-.8954 2-2 0-1.10457-.8954-2-2-2s-2 .89543-2 2c0 1.1046.8954 2 2 2z"/><path d="m27.5 4h-9.5v-1c0-.26522-.1054-.51957-.2929-.70711-.1875-.18753-.4419-.29289-.7071-.29289h-2c-.2652 0-.5196.10536-.7071.29289-.1875.18754-.2929.44189-.2929.70711v1h-9.5c-.66304 0-1.29893.26339-1.76777.73223s-.73223 1.10473-.73223 1.76777v7c0 .663.26339 1.2989.73223 1.7678.46884.4688 1.10473.7322 1.76777.7322h23c.663 0 1.2989-.2634 1.7678-.7322.4688-.4689.7322-1.1048.7322-1.7678v-7c0-.66304-.2634-1.29893-.7322-1.76777-.4689-.46884-1.1048-.73223-1.7678-.73223zm.5 9.5c0 .1326-.0527.2598-.1464.3536-.0938.0937-.221.1464-.3536.1464h-23c-.13261 0-.25979-.0527-.35355-.1464-.09377-.0938-.14645-.221-.14645-.3536v-7c0-.13261.05268-.25979.14645-.35355.09376-.09377.22094-.14645.35355-.14645h23c.1326 0 .2598.05268.3536.14645.0937.09376.1464.22094.1464.35355zm2 7v9c0 .663-.2634 1.2989-.7322 1.7678-.4689.4688-1.1048.7322-1.7678.7322h-1.67c-.7954-.0007-1.5579-.3172-2.12-.88l-1.79-1.78-2.33 2.32c-.1846.1884-.4362.2962-.7.3-.1986.0012-.3931-.0569-.5586-.1667s-.2946-.2664-.3708-.4498c-.0761-.1835-.0959-.3854-.0569-.5802.0391-.1947.1353-.3734.2763-.5133l2.33-2.33-2.22-2.21c-.1883-.1883-.2941-.4437-.2941-.71s.1058-.5217.2941-.71.4437-.2941.71-.2941.5217.1058.71.2941l5.41 5.42c.0934.0927.2043.166.3261.2158.1218.0497.2523.075.3839.0742h1.67c.1326 0 .2598-.0527.3536-.1464.0937-.0938.1464-.221.1464-.3536v-9c0-.1326-.0527-.2598-.1464-.3536-.0938-.0937-.221-.1464-.3536-.1464h-23c-.13261 0-.25979.0527-.35355.1464-.09377.0938-.14645.221-.14645.3536v9c0 .1326.05268.2598.14645.3536.09376.0937.22094.1464.35355.1464h1.67c.13161.0008.26207-.0245.38391-.0742.12183-.0498.23265-.1231.32609-.2158l5.41-5.42c.0932-.0932.2039-.1672.3258-.2177.1218-.0504.2523-.0764.3842-.0764s.2624.026.3842.0764c.1219.0505.2326.1245.3258.2177s.1672.2039.2177.3258c.0504.1218.0764.2523.0764.3842s-.026.2624-.0764.3842c-.0505.1219-.1245.2326-.2177.3258l-2.22 2.21 2.3 2.3c.1376.1404.2308.3182.2679.5113.0371.193.0165.3927-.0593.5741-.0757.1814-.2033.3364-.3667.4457-.1633.1094-.3553.1681-.5519.1689-.1316.0008-.2621-.0245-.3839-.0742-.1218-.0498-.2327-.1231-.3261-.2158l-2.29-2.29-1.79 1.78c-.56207.5628-1.32462.8793-2.12.88h-1.67c-.66304 0-1.29893-.2634-1.76777-.7322-.46884-.4689-.73223-1.1048-.73223-1.7678v-9c0-.663.26339-1.2989.73223-1.7678.46884-.4688 1.10473-.7322 1.76777-.7322h23c.663 0 1.2989.2634 1.7678.7322.4688.4689.7322 1.1048.7322 1.7678z"/></g></svg>

<svg width="32" height="32" viewBox="0 0 32 32" fill="none" xmlns="http://www.w3.org/2000/svg">
<path d="M10 12C11.1046 12 12 11.1046 12 10C12 8.89543 11.1046 8 10 8C8.89543 8 8 8.89543 8 10C8 11.1046 8.89543 12 10 12Z" fill="#394762"/>
<path d="M22 12C23.1046 12 24 11.1046 24 10C24 8.89543 23.1046 8 22 8C20.8954 8 20 8.89543 20 10C20 11.1046 20.8954 12 22 12Z" fill="#394762"/>
<path d="M27.5 4H18V3C18 2.73478 17.8946 2.48043 17.7071 2.29289C17.5196 2.10536 17.2652 2 17 2H15C14.7348 2 14.4804 2.10536 14.2929 2.29289C14.1054 2.48043 14 2.73478 14 3V4H4.5C3.83696 4 3.20107 4.26339 2.73223 4.73223C2.26339 5.20107 2 5.83696 2 6.5V13.5C2 14.163 2.26339 14.7989 2.73223 15.2678C3.20107 15.7366 3.83696 16 4.5 16H27.5C28.163 16 28.7989 15.7366 29.2678 15.2678C29.7366 14.7989 30 14.163 30 13.5V6.5C30 5.83696 29.7366 5.20107 29.2678 4.73223C28.7989 4.26339 28.163 4 27.5 4ZM28 13.5C28 13.6326 27.9473 13.7598 27.8536 13.8536C27.7598 13.9473 27.6326 14 27.5 14H4.5C4.36739 14 4.24021 13.9473 4.14645 13.8536C4.05268 13.7598 4 13.6326 4 13.5V6.5C4 6.36739 4.05268 6.24021 4.14645 6.14645C4.24021 6.05268 4.36739 6 4.5 6H27.5C27.6326 6 27.7598 6.05268 27.8536 6.14645C27.9473 6.24021 28 6.36739 28 6.5V13.5ZM30 20.5V29.5C30 30.163 29.7366 30.7989 29.2678 31.2678C28.7989 31.7366 28.163 32 27.5 32H25.83C25.0346 31.9993 24.2721 31.6828 23.71 31.12L21.92 29.34L19.59 31.66C19.4054 31.8484 19.1538 31.9562 18.89 31.96C18.6914 31.9612 18.4969 31.9031 18.3314 31.7933C18.1659 31.6835 18.0368 31.5269 17.9606 31.3435C17.8845 31.16 17.8647 30.9581 17.9037 30.7633C17.9428 30.5686 18.039 30.3899 18.18 30.25L20.51 27.92L18.29 25.71C18.1017 25.5217 17.9959 25.2663 17.9959 25C17.9959 24.7337 18.1017 24.4783 18.29 24.29C18.4783 24.1017 18.7337 23.9959 19 23.9959C19.2663 23.9959 19.5217 24.1017 19.71 24.29L25.12 29.71C25.2134 29.8027 25.3243 29.876 25.4461 29.9258C25.5679 29.9755 25.6984 30.0008 25.83 30H27.5C27.6326 30 27.7598 29.9473 27.8536 29.8536C27.9473 29.7598 28 29.6326 28 29.5V20.5C28 20.3674 27.9473 20.2402 27.8536 20.1464C27.7598 20.0527 27.6326 20 27.5 20H4.5C4.36739 20 4.24021 20.0527 4.14645 20.1464C4.05268 20.2402 4 20.3674 4 20.5V29.5C4 29.6326 4.05268 29.7598 4.14645 29.8536C4.24021 29.9473 4.36739 30 4.5 30H6.17C6.30161 30.0008 6.43207 29.9755 6.55391 29.9258C6.67574 29.876 6.78656 29.8027 6.88 29.71L12.29 24.29C12.3832 24.1968 12.4939 24.1228 12.6158 24.0723C12.7376 24.0219 12.8681 23.9959 13 23.9959C13.1319 23.9959 13.2624 24.0219 13.3842 24.0723C13.5061 24.1228 13.6168 24.1968 13.71 24.29C13.8032 24.3832 13.8772 24.4939 13.9277 24.6158C13.9781 24.7376 14.0041 24.8681 14.0041 25C14.0041 25.1319 13.9781 25.2624 13.9277 25.3842C13.8772 25.5061 13.8032 25.6168 13.71 25.71L11.49 27.92L13.79 30.22C13.9276 30.3604 14.0208 30.5382 14.0579 30.7313C14.095 30.9243 14.0744 31.124 13.9986 31.3054C13.9229 31.4868 13.7953 31.6418 13.6319 31.7511C13.4686 31.8605 13.2766 31.9192 13.08 31.92C12.9484 31.9208 12.8179 31.8955 12.6961 31.8458C12.5743 31.796 12.4634 31.7227 12.37 31.63L10.08 29.34L8.29 31.12C7.72793 31.6828 6.96538 31.9993 6.17 32H4.5C3.83696 32 3.20107 31.7366 2.73223 31.2678C2.26339 30.7989 2 30.163 2 29.5V20.5C2 19.837 2.26339 19.2011 2.73223 18.7322C3.20107 18.2634 3.83696 18 4.5 18H27.5C28.163 18 28.7989 18.2634 29.2678 18.7322C29.7366 19.2011 30 19.837 30 20.5V20.5Z" fill="#394762"/>
</svg>
